X:1
T:Bingo In the Morning
M:6/8
L:1/8
K:E
 G3| E2 E E2 E| E2 E G2 G| F2 F G2 F| E6| A2 A A2 A| GG G- G2 G| F2 E D2 C|\
 B,3- B,2 A| AA A- A2 A| G B2- B2 A| G2 B A2 G| F3- F2 B| B B2 B2 A|\
 A A2- A3| G2 E F2 D| C3||
